svgs/sharp-light/venus.svg

<svg xmlns="http://www.w3.org/2000/svg" viewBox="0 0 384 512"><!--! Font Awesome Pro 6.6.0 by @fontawesome - https://fontawesome.com License - https://fontawesome.com/license (Commercial License) Copyright 2024 Fonticons, Inc. --><path d="M48 176a144 144 0 1 1 288 0A144 144 0 1 1 48 176zM208 351.3c89.7-8.1 160-83.5 160-175.3C368 78.8 289.2 0 192 0S16 78.8 16 176c0 91.8 70.3 167.2 160 175.3l0 64.7-64 0-16 0 0 32 16 0 64 0 0 48 0 16 32 0 0-16 0-48 64 0 16 0 0-32-16 0-64 0 0-64.7z"/></svg>

<svg xmlns="http://www.w3.org/2000/svg" viewBox="0 0 384 512"><!--! Font Awesome Pro 6.4.2 by @fontawesome - https://fontawesome.com License - https://fontawesome.com/license (Commercial License) Copyright 2023 Fonticons, Inc. --><path d="M48 176a144 144 0 1 1 288 0A144 144 0 1 1 48 176zM208 351.3c89.7-8.1 160-83.5 160-175.3C368 78.8 289.2 0 192 0S16 78.8 16 176c0 91.8 70.3 167.2 160 175.3V416H112 96v32h16 64v48 16h32V496 448h64 16V416H272 208V351.3z"/></svg>
